icons/plexis/48/jasp-desktop.svg

<svg viewBox="0 0 48 48" xmlns="http://www.w3.org/2000/svg" xmlns:xlink="http://www.w3.org/1999/xlink">
  <linearGradient id="a" gradientTransform="matrix(0 -1 1 0 -.0000015 47.999998)" gradientUnits="userSpaceOnUse" x1="1" x2="47">
    <stop offset="0" stop-color="#b5d9f3"/>
    <stop offset="1" stop-color="#c6e2f6"/>
  </linearGradient>
  <path d="m47 24c0 22.703-.297 23-23 23-22.703 0-23-.297-23-23 0-22.703.297-23 23-23 22.703 0 23 .297 23 23z" fill="url(#a)"/>
  <path d="m32.5 12a1.5 1.5 0 0 0-1.5 1.5 1.5 1.5 0 0 0  .059.412l-4.117 1.176a1.5 1.5 0 0 0-1.442-1.088 1.5 1.5 0 0 0-1.5 1.5 1.5 1.5 0 0 0  1.289 1.482l-1.988 13.912-3.596-1.917.264-1.979a1 1 0 0 0  .031.002 1 1 0 0 0  1-1 1 1 0 0 0-1-1 1 1 0 0 0-1 1 1 1 0 0 0  .033.248l-2.064.512a1 1 0 0 0-.969-.76 1 1 0 0 0-1 1 1 1 0 0 0  .82.982l-.643 3.535a1 1 0 0 0-.177-.017 1 1 0 0 0-1 1 1 1 0 0 0  1 1 1 1 0 0 0  .881-.529l5.297 2.824a1.5 1.5 0 0 0-.178.705 1.5 1.5 0 0 0  1.5 1.5 1.5 1.5 0 0 0  1.5-1.5 1.5 1.5 0 0 0-.059-.41l4.117-1.176a1.5 1.5 0 0 0 1.442 1.086 1.5 1.5 0 0 0  1.5-1.5 1.5 1.5 0 0 0-1.287-1.48l2.577-18.038a1.5 1.5 0 0 0  .21.018 1.5 1.5 0 0 0  1.5-1.5 1.5 1.5 0 0 0-1.5-1.5" fill-opacity=".098"/>
  <g transform="translate(-8.5 -762.00005)">
    <path d="m23.5 788l4.103-1.017-1.103 8.303" fill="#178dbd"/>
    <path d="m22.5 793.5l1-5.5 7.5 4-1 5.5z" fill="#1a9ace"/>
    <path d="m33 776.5l7-2-3 21-7 2z" fill="#1ca8e1"/>
    <circle cx="40" cy="774.5" fill="#39b4e7" r="1.5"/>
    <circle cx="40" cy="774.5" fill="#f9f9f9" r=".5"/>
    <circle cx="33" cy="776.5" fill="#39b4e7" r="1.5"/>
    <circle cx="33" cy="776.5" fill="#f9f9f9" r=".5"/>
    <circle cx="30" cy="797.5" fill="#39b4e7" r="1.5"/>
    <circle cx="30" cy="797.5" fill="#f9f9f9" r=".5"/>
    <circle cx="37" cy="795.5" fill="#39b4e7" r="1.5"/>
    <circle cx="37" cy="795.5" fill="#f9f9f9" r=".5"/>
    <circle cx="23.5" cy="788" fill="#39b4e7" r="1"/>
    <circle cx="22.5" cy="793.5" fill="#39b4e7" r="1"/>
    <circle cx="27.5" cy="787" fill="#39b4e7" r="1"/>
  </g>
</svg>

<svg xmlns="http://www.w3.org/2000/svg" viewBox="0 0 48 48">
 <defs>
  <linearGradient id="linearGradient3764" x1="1" x2="47" gradientUnits="userSpaceOnUse" gradientTransform="matrix(0,-1,1,0,-1.5e-6,47.999998)">
   <stop style="stop-color:#b5d9f3;stop-opacity:1"/>
   <stop offset="1" style="stop-color:#c6e2f6;stop-opacity:1"/>
  </linearGradient>
 </defs>
 <g>
  
  
  
 </g>
 <g>
  <path d="m 47,24 C 47,46.703 46.703,47 24,47 1.297,47 1,46.703 1,24 1,1.297 1.297,1 24,1 46.703,1 47,1.297 47,24 z" style="fill:url(#linearGradient3764);fill-opacity:1"/>
 </g>
 <g>
  
 </g>
 <path d="m 32.5 12 a 1.5 1.5 0 0 0 -1.5 1.5 1.5 1.5 0 0 0 0.059 0.412 l -4.117 1.176 A 1.5 1.5 0 0 0 25.5 14 a 1.5 1.5 0 0 0 -1.5 1.5 1.5 1.5 0 0 0 1.289 1.482 L 23.301 30.894 19.705 28.977 19.969 26.998 A 1 1 0 0 0 20 27 a 1 1 0 0 0 1 -1 1 1 0 0 0 -1 -1 1 1 0 0 0 -1 1 1 1 0 0 0 0.033 0.248 l -2.064 0.512 A 1 1 0 0 0 16 26 a 1 1 0 0 0 -1 1 1 1 0 0 0 0.82 0.982 l -0.643 3.535 A 1 1 0 0 0 15 31.5 a 1 1 0 0 0 -1 1 1 1 0 0 0 1 1 1 1 0 0 0 0.881 -0.529 l 5.297 2.824 A 1.5 1.5 0 0 0 21 36.5 1.5 1.5 0 0 0 22.5 38 1.5 1.5 0 0 0 24 36.5 1.5 1.5 0 0 0 23.941 36.09 l 4.117 -1.176 A 1.5 1.5 0 0 0 29.5 36 1.5 1.5 0 0 0 31 34.5 1.5 1.5 0 0 0 29.713 33.02 L 32.29 14.982 A 1.5 1.5 0 0 0 32.5 15 1.5 1.5 0 0 0 34 13.5 1.5 1.5 0 0 0 32.5 12" style="fill:#000;opacity:1;fill-opacity:0.098;stroke:none"/>
 <g transform="translate(-8.5,-762.00005)">
  <path d="m 23.5 788 4.103 -1.017 -1.103 8.303" style="fill:#178dbd;opacity:1;fill-opacity:1;stroke:none"/>
  <path d="m 22.5 793.5 1 -5.5 7.5 4 -1 5.5 z" style="fill:#1a9ace;opacity:1;fill-opacity:1;stroke:none"/>
  <path d="m 33 776.5 7 -2 -3 21 -7 2 z" style="fill:#1ca8e1;opacity:1;fill-opacity:1;stroke:none"/>
  <circle r="1.5" cy="774.5" cx="40" style="fill:#39b4e7;opacity:1;fill-opacity:1;stroke:none"/>
  <circle r="0.5" cy="774.5" cx="40" style="fill:#f9f9f9;opacity:1;fill-opacity:1;stroke:none"/>
  <circle r="1.5" cy="776.5" cx="33" style="fill:#39b4e7;opacity:1;fill-opacity:1;stroke:none"/>
  <circle r="0.5" cy="776.5" cx="33" style="fill:#f9f9f9;opacity:1;fill-opacity:1;stroke:none"/>
  <circle cx="30" cy="797.5" r="1.5" style="fill:#39b4e7;opacity:1;fill-opacity:1;stroke:none"/>
  <circle cx="30" cy="797.5" r="0.5" style="fill:#f9f9f9;opacity:1;fill-opacity:1;stroke:none"/>
  <circle r="1.5" cy="795.5" cx="37" style="fill:#39b4e7;opacity:1;fill-opacity:1;stroke:none"/>
  <circle r="0.5" cy="795.5" cx="37" style="fill:#f9f9f9;opacity:1;fill-opacity:1;stroke:none"/>
  <circle r="1" cy="788" cx="23.5" style="fill:#39b4e7;opacity:1;fill-opacity:1;stroke:none"/>
  <circle r="1" cy="793.5" cx="22.5" style="fill:#39b4e7;opacity:1;fill-opacity:1;stroke:none"/>
  <circle r="1" cy="787" cx="27.5" style="fill:#39b4e7;opacity:1;fill-opacity:1;stroke:none"/>
 </g>
</svg>
